X:103
T: Das Bittereleidenslied (2-5) S. 21
N: P0878
O: Lothringen
S: PINCK, Louis: Verklingende Weisen, Bd 2, Metz 1928]
R: geistliche, religise Lieder]
M: 3/4
L: 1/8
K: G
DD | G4G2 | A2B2A2 | G6- | G4
G2 | c4c2 | B4A2 | G2A2B2 | A6- | A4
AG | A2A2Bc | d2d2D2 | G2A2B2 | A2G2
A2 | B2cBA2 | B2A2G2 | F4A2 | G4

@@@ Tune index: 7653
